X:666
T:The Gobby O
T:Jefferson and Liberty
R:Jig
O:Ireland
B:Krassen O'Neill's p32
B:O'Neill's 844
B:New England Fiddler's Repertoire
S:My arrangement from various sources
Z:Transcription, arrangement, chords:Mike Long
M:6/8
L:1/8
K:G
A/B/|\
"Am"c2A A^GA|E2A ABc|"G"BAB GAB|dBG GAB|\
"Am"c2A A^GA|E2a a2b|"C"age "G"edB|"Am"cAA A2:|
|:E|\
"Am"A2B c2d|e2f g3|"C"agf gfe|"G"dBG G2E|\
"Am"A2B c2d|efg a2b|"C"age "G"edB|"Am"cAA A2:|
